svg/u1F1FA.svg

<svg viewBox="0 0 2600 2760.837" xmlns="http://www.w3.org/2000/svg"><path d="M2089 492q17 0 28.5 11.5t11.5 28.5v906q-4 172-25.5 290t-91 249-182.5 214-249 124-282 41q-191 0-350.5-65t-255.5-167-156.5-252.5-65.5-417.5l-1-49v-873q0-17 11.5-28.5t28.5-11.5h431q17 0 28.5 11.5t11.5 28.5v873q0 109 5.5 179.5t39 135 100.5 97.5 173 33q93 0 154-25t93-65 50-93 21-184l1-75v-876q0-17 11.5-28.5t28.5-11.5h431z"/></svg>

<svg viewBox="0 0 2600 2760.837" xmlns="http://www.w3.org/2000/svg"><path d="M2089 492q17 0 28.5 11.5T2129 532v906q-4 172-25.5 290t-91 249-182.5 214-249 124-282 41q-191 0-350.5-65T693 2124t-156.5-252.5T471 1454l-1-49V532q0-17 11.5-28.5T510 492h431q17 0 28.5 11.5T981 532v873q0 109 5.5 179.5t39 135T1126 1817t173 33q93 0 154-25t93-65 50-93 21-184l1-75V532q0-17 11.5-28.5T1658 492h431z"/></svg>
